X: 19694
T: Jenny Dang The Weaver
R: reel
M: 4/4
K: Emajor
eBBB BGBc|eBBB fgfg|eccc cBce|Bcef g2 fg:|
|:e2 ge fgaf|efge f2 ec|effe fgaf|bBBB fgfg:|

